X:21
T:GB/7d/21 Room for Cuckolds
%%VWML:GB-7d-21-0
F:http://www.vwml.org/record/GB/7d/21
T:Bucknell Morris Tunes 5 of 8
C:Transcribed by Simon Furey and Lewis Jones
L:1/8
M:6/8
I:linebreak $
K:F
F>FF C2 C |"^(a)" D>Fd cBA | F>FF C2 C | D2 G F3 ::$"^(b)" A2 F A2 F | AFA G3 | A2 F D2 D | GFE F3 ::$ F>FF C2 C |"^(a) var." D>Fd cAF | F>FF C2 C | D2 G F3 ::$"^(b) var." AGF A2 F | ABA G3 | A2 F D2 D | GFE F3 :|

